static/images/pieces/synochess/intl-red/bK.svg

<svg clip-rule="evenodd" fill-rule="evenodd" height="177.17" image-rendering="optimizeQuality" shape-rendering="geometricPrecision" viewBox="0 0 50 50" width="177.17" xmlns="http://www.w3.org/2000/svg" xmlns:xlink="http://www.w3.org/1999/xlink"><linearGradient id="a"><stop offset="0" stop-color="#fff"/><stop offset="1" stop-color="#600"/></linearGradient><linearGradient id="b" gradientUnits="userSpaceOnUse" x1="62.98965855377" x2="227.94652154437" xlink:href="#a" y1="66.63027617389" y2="66.63027617389"/><linearGradient id="c" gradientUnits="userSpaceOnUse" x1="40.44324133818" x2="80.25271457474" xlink:href="#a" y1="60.81117783866" y2="60.81117783866"/><g transform="matrix(.98459729 0 0 .98459729 -20.16279 -23.446678)"><path d="m46.213835 59.000144c-4.337713-.106113-8.805939.133592-14.547379-.393637-3.058483-4.365293-7.669835-20.160522-6.59342-27.568225 8.133658-4.954192 35.196714-5.374469 41.572966.164983 1.076415 7.407703-2.923901 22.91519-5.982386 27.280482" fill="#600"/><path d="m31.268708 57.912189c.303804 3.771269.984734 7.129255 2.001421 10.900524 4.677097 2.079376 8.290066 2.312316 12.581636 2.411335 4.291572-.07951 9.098353-.716921 13.005531-2.521323 1.016687-3.771269 2.010052-7.461209 2.358048-11.14409l-15.014146 1.158821z" fill="#600"/><path clip-rule="nonzero" d="m27.523438 28.787109-5.4375 4.373047c9.32396 11.580768 11.431618 14.100036 13.640624 17.730469 5.470234 23.009849 7.405174 37.18931 13.779297 60.912105l6.738282-1.8125c-6.200373-23.076147-8.144107-37.038019-13.507813-59.753902 8.017111-7.175188 12.815011-7.459261 17.167969-6.253906 4.237392 1.173356 8.204401 4.702866 13.421875 6.660156l4.15039 31.863281c-1.072982 1.924859-1.553776 4.32077-1.123046 7.210938-17.25427 3.274064-18.564575 3.781388-9.519532 17.439453 18.837026-4.77316 25.642437-4.78514 45.880856-.875 9.20109-13.107417 4.62745-14.736167-10.27343-16.431641.2687-3.219652-.54673-5.846556-2.03321-7.884765l6.06641-31.390625 1.18945-1.154297c8.39235-8.176165 20.89054-8.627749 29.44336-.716797-5.42461 23.160063-7.55726 38.002443-13.0957 60.986325l6.78516 1.63672c5.66617-23.513948 7.79308-38.477738 13.29492-61.837889 2.27868-3.905806-4.85559 5.2015 11.66015-16.115234l-5.51367-4.273438c-5.53098 7.138784-8.40632 10.899995-10.04101 13.095703-10.24126-8.030864-24.41114-7.514499-34.6875.457032-5.705767-5.153583-10.452894-8.631365-15.808598-8.509766-5.324169.120888-9.710509 3.883409-14.703125 9.388672-3.31757-1.581745-7.425581-4.666908-13.234375-6.275391-6.062126-1.678635-13.627253-.488502-22.289063 6.617188-2.17838-3.02144-5.326593-6.857923-11.951171-15.085938zm62.335937 12.332032c2.357912-.053535 5.979233 1.977887 11.722655 7.195312l-5.783202 29.927735c-4.19835-2.003734-9.551218-2.026067-13.609375-.052735l-3.693359-28.351562c5.495368-6.35481 8.862296-8.661964 11.363281-8.71875z" fill="url(#b)" fill-rule="nonzero" image-rendering="auto" shape-rendering="auto" transform="matrix(.2866297 0 0 .2866297 20.478209 23.81347)"/><path d="m58.637571 59.313059c-10.148151-3.627794-15.062201-2.996712-24.924454.09383.179676 2.723504.658479 4.616447 1.390628 7.892424 7.798065-3.274844 14.509744-3.48095 21.836824-.277475.889405-3.211349 1.228218-4.68228 1.697002-7.708779z" fill="url(#c)"/><path d="m48.653218 60.699242a2.7839172 2.7839172 0 0 1 -2.60184 2.777956 2.7839172 2.7839172 0 0 1 -2.942178-2.414582 2.7839172 2.7839172 0 0 1 2.216986-3.093799 2.7839172 2.7839172 0 0 1 3.232172 2.009894" fill="#600"/></g></svg>

<?xml version="1.0" encoding="UTF-8" standalone="no"?>
<svg
   xmlns:dc="http://purl.org/dc/elements/1.1/"
   xmlns:cc="http://creativecommons.org/ns#"
   xmlns:rdf="http://www.w3.org/1999/02/22-rdf-syntax-ns#"
   xmlns:svg="http://www.w3.org/2000/svg"
   xmlns="http://www.w3.org/2000/svg"
   xmlns:xlink="http://www.w3.org/1999/xlink"
   xmlns:sodipodi="http://sodipodi.sourceforge.net/DTD/sodipodi-0.dtd"
   xmlns:inkscape="http://www.inkscape.org/namespaces/inkscape"
   inkscape:version="1.0.1 (3bc2e813f5, 2020-09-07)"
   sodipodi:docname="bKing.svg"
   id="svg4798"
   version="1.1"
   viewBox="0 0 50 50"
   clip-rule="evenodd"
   fill-rule="evenodd"
   image-rendering="optimizeQuality"
   shape-rendering="geometricPrecision"
   height="177.17"
   width="177.17">
  <metadata
     id="metadata4802">
    <rdf:RDF>
      <cc:Work
         rdf:about="">
        <dc:format>image/svg+xml</dc:format>
        <dc:type
           rdf:resource="http://purl.org/dc/dcmitype/StillImage" />
        <dc:title></dc:title>
      </cc:Work>
    </rdf:RDF>
  </metadata>
  <sodipodi:namedview
     inkscape:document-rotation="0"
     inkscape:snap-nodes="false"
     inkscape:current-layer="g6945"
     inkscape:window-maximized="1"
     inkscape:window-y="-12"
     inkscape:window-x="-12"
     inkscape:cy="312.05062"
     inkscape:cx="-565.28143"
     inkscape:zoom="1.332054"
     showgrid="false"
     id="namedview4800"
     inkscape:window-height="2050"
     inkscape:window-width="3840"
     inkscape:pageshadow="2"
     inkscape:pageopacity="0"
     guidetolerance="10"
     gridtolerance="10"
     objecttolerance="10"
     borderopacity="1"
     bordercolor="#666666"
     pagecolor="#ffffff" />
  <defs
     id="defs4788">
    <linearGradient
       id="linearGradient8609"
       inkscape:collect="always">
      <stop
         id="stop8605"
         offset="0"
         style="stop-color:#ffffff;stop-opacity:1;" />
      <stop
         id="stop8607"
         offset="1"
         style="stop-color:#660000;stop-opacity:1" />
    </linearGradient>
    <linearGradient
       id="linearGradient5822"
       inkscape:collect="always">
      <stop
         id="stop5818"
         offset="0"
         style="stop-color:#ffffff;stop-opacity:1;" />
      <stop
         id="stop5820"
         offset="1"
         style="stop-color:#660000;stop-opacity:1" />
    </linearGradient>
    <linearGradient
       gradientUnits="userSpaceOnUse"
       x2="77.64"
       x1="21.376"
       id="0">
      <stop
         id="stop4783"
         stop-color="#fff" />
      <stop
         id="stop4785"
         stop-opacity="0"
         stop-color="#fff"
         offset="1" />
    </linearGradient>
    <linearGradient
       gradientUnits="userSpaceOnUse"
       y2="37.469002"
       x2="77.760002"
       y1="37.220001"
       x1="21.129999"
       id="0-3"
       gradientTransform="translate(50.708427,-1.9548155)">
      <stop
         id="stop5461"
         stop-color="#fff" />
      <stop
         id="stop5463"
         stop-opacity="0"
         stop-color="#fff"
         offset="1" />
    </linearGradient>
    <linearGradient
       gradientUnits="userSpaceOnUse"
       x2="77.639999"
       x1="21.375999"
       id="0-2"
       gradientTransform="translate(-54.458725,-1.3555716)">
      <stop
         id="stop6058"
         stop-color="#fff" />
      <stop
         id="stop6060"
         stop-opacity="0"
         stop-color="#fff"
         offset="1" />
    </linearGradient>
    <linearGradient
       gradientUnits="userSpaceOnUse"
       y2="42.911686"
       x2="85.814453"
       y1="42.911686"
       x1="38.532917"
       id="linearGradient2375"
       xlink:href="#linearGradient5822"
       inkscape:collect="always"
       gradientTransform="matrix(3.488822,0,0,3.488822,-71.44483,-83.080958)" />
    <linearGradient
       gradientTransform="matrix(1.1507613,0,0,1.1507613,-7.0739765,-4.6754817)"
       gradientUnits="userSpaceOnUse"
       y2="56.907249"
       x2="75.886017"
       y1="56.907249"
       x1="41.291985"
       id="linearGradient6891-9"
       xlink:href="#linearGradient8609"
       inkscape:collect="always" />
    <linearGradient
       gradientTransform="translate(49.09174,-1.6184006)"
       id="0-9"
       x1="21.129999"
       y1="37.220001"
       x2="77.760002"
       y2="37.469002"
       gradientUnits="userSpaceOnUse">
      <stop
         stop-color="#fff"
         id="stop871" />
      <stop
         offset="1"
         stop-color="#fff"
         stop-opacity="0"
         id="stop873" />
    </linearGradient>
  </defs>
  <g
     transform="translate(0.26838843)"
     id="g6945">
    <g
       transform="matrix(0.98459729,0,0,0.98459729,-20.431178,-23.446678)"
       id="g2299">
      <path
         style="fill:#660000;fill-opacity:1;stroke:none;stroke-width:1.15365;stroke-linecap:butt;stroke-linejoin:miter;stroke-miterlimit:4;stroke-dasharray:none;stroke-opacity:1"
         d="m 46.213835,59.000144 c -4.337713,-0.106113 -8.805939,0.133592 -14.547379,-0.393637 -3.058483,-4.365293 -7.669835,-20.160522 -6.59342,-27.568225 8.133658,-4.954192 35.196714,-5.374469 41.572966,0.164983 1.076415,7.407703 -2.923901,22.91519 -5.982386,27.280482"
         id="path7039-8"
         inkscape:connector-curvature="0"
         sodipodi:nodetypes="ccccc" />
      <path
         style="fill:#660000;fill-opacity:1;stroke:none;stroke-width:0.624152;stroke-linecap:butt;stroke-linejoin:miter;stroke-miterlimit:4;stroke-dasharray:none;stroke-opacity:1"
         d="m 31.268708,57.912189 c 0.303804,3.771269 0.984734,7.129255 2.001421,10.900524 4.677097,2.079376 8.290066,2.312316 12.581636,2.411335 4.291572,-0.07951 9.098353,-0.716921 13.005531,-2.521323 1.016687,-3.771269 2.010052,-7.461209 2.358048,-11.14409 l -15.014146,1.158821 z"
         id="path7043-7"
         inkscape:connector-curvature="0"
         sodipodi:nodetypes="ccccccc" />
      <path
         id="path8617"
         style="color:#000000;font-style:normal;font-variant:normal;font-weight:normal;font-stretch:normal;font-size:medium;line-height:normal;font-family:sans-serif;font-variant-ligatures:normal;font-variant-position:normal;font-variant-caps:normal;font-variant-numeric:normal;font-variant-alternates:normal;font-variant-east-asian:normal;font-feature-settings:normal;font-variation-settings:normal;text-indent:0;text-align:start;text-decoration:none;text-decoration-line:none;text-decoration-style:solid;text-decoration-color:#000000;letter-spacing:normal;word-spacing:normal;text-transform:none;writing-mode:lr-tb;direction:ltr;text-orientation:mixed;dominant-baseline:auto;baseline-shift:baseline;text-anchor:start;white-space:normal;shape-padding:0;shape-margin:0;inline-size:0;clip-rule:nonzero;display:inline;overflow:visible;visibility:visible;opacity:1;isolation:auto;mix-blend-mode:normal;color-interpolation:sRGB;color-interpolation-filters:linearRGB;solid-color:#000000;solid-opacity:1;vector-effect:none;fill:url(#linearGradient2375);fill-opacity:1;fill-rule:nonzero;stroke:none;stroke-width:5.23323;stroke-linecap:butt;stroke-linejoin:miter;stroke-miterlimit:4;stroke-dasharray:none;stroke-dashoffset:0;stroke-opacity:1;color-rendering:auto;image-rendering:auto;shape-rendering:auto;text-rendering:auto;enable-background:accumulate;stop-color:#000000;stop-opacity:1"
         d="M 27.523438 28.787109 L 22.085938 33.160156 C 31.409898 44.740924 33.517556 47.260192 35.726562 50.890625 C 41.196796 73.900474 43.131736 88.079935 49.505859 111.80273 L 56.244141 109.99023 C 50.043768 86.914083 48.100034 72.952211 42.736328 50.236328 C 50.753439 43.06114 55.551339 42.777067 59.904297 43.982422 C 64.141689 45.155778 68.108698 48.685288 73.326172 50.642578 L 77.476562 82.505859 C 76.40358 84.430718 75.922786 86.826629 76.353516 89.716797 C 59.099246 92.990861 57.788941 93.498185 66.833984 107.15625 C 85.67101 102.38309 92.476421 102.37111 112.71484 106.28125 C 121.91593 93.173833 117.34229 91.545083 102.44141 89.849609 C 102.71011 86.629957 101.89468 84.003053 100.4082 81.964844 L 106.47461 50.574219 L 107.66406 49.419922 C 116.05641 41.243757 128.5546 40.792173 137.10742 48.703125 C 131.68281 71.863188 129.55016 86.705568 124.01172 109.68945 L 130.79688 111.32617 C 136.46305 87.812222 138.58996 72.848432 144.0918 49.488281 C 146.37048 45.582475 139.23621 54.689781 155.75195 33.373047 L 150.23828 29.099609 C 144.7073 36.238393 141.83196 39.999604 140.19727 42.195312 C 129.95601 34.164448 115.78613 34.680813 105.50977 42.652344 C 99.804003 37.498761 95.056876 34.020979 89.701172 34.142578 C 84.377003 34.263466 79.990663 38.025987 74.998047 43.53125 C 71.680477 41.949505 67.572466 38.864342 61.763672 37.255859 C 55.701546 35.577224 48.136419 36.767357 39.474609 43.873047 C 37.296229 40.851607 34.148016 37.015124 27.523438 28.787109 z M 89.859375 41.119141 C 92.217287 41.065606 95.838608 43.097028 101.58203 48.314453 L 95.798828 78.242188 C 91.600478 76.238454 86.24761 76.216121 82.189453 78.189453 L 78.496094 49.837891 C 83.991462 43.483081 87.35839 41.175927 89.859375 41.119141 z "
         transform="matrix(0.2866297,0,0,0.2866297,20.478209,23.81347)" />
      <path
         sodipodi:nodetypes="ccccc"
         inkscape:connector-curvature="0"
         id="path7094-2"
         d="M 58.637571,59.313059 C 48.48942,55.685265 43.57537,56.316347 33.713117,59.406889 c 0.179676,2.723504 0.658479,4.616447 1.390628,7.892424 7.798065,-3.274844 14.509744,-3.48095 21.836824,-0.277475 0.889405,-3.211349 1.228218,-4.68228 1.697002,-7.708779 z"
         style="fill:url(#linearGradient6891-9);fill-opacity:1;stroke:none;stroke-width:2.30152;stroke-linecap:butt;stroke-linejoin:miter;stroke-miterlimit:4;stroke-dasharray:none;stroke-opacity:1" />
      <path
         id="ellipse1567"
         style="opacity:1;fill:#660000;fill-opacity:1;stroke:none;stroke-width:1.53582;stroke-linecap:square;stroke-linejoin:miter;stroke-miterlimit:4;stroke-dasharray:none;stroke-opacity:1;paint-order:normal"
         sodipodi:type="arc"
         sodipodi:cx="45.869301"
         sodipodi:cy="60.699242"
         sodipodi:rx="2.7839172"
         sodipodi:ry="2.7839172"
         sodipodi:start="0"
         sodipodi:end="6.0213859"
         sodipodi:open="true"
         sodipodi:arc-type="arc"
         d="m 48.653218,60.699242 a 2.7839172,2.7839172 0 0 1 -2.60184,2.777956 2.7839172,2.7839172 0 0 1 -2.942178,-2.414582 2.7839172,2.7839172 0 0 1 2.216986,-3.093799 2.7839172,2.7839172 0 0 1 3.232172,2.009894" />
    </g>
  </g>
</svg>
